X:23
T:Réten, réten
O: (Abaúj-Torna)
Q: "Mentelő" 1/4=116
M:4/4
L:1/4
K:C
AEED | C E/D/ C<B, | A,2 A, z |
ceeB/d/ | c>A A<G | A2 E z | 
ceeB/d/ | c<A A<G | A2 E z | 
AEED | C/C/ E/D/ C<B, | A,2 A, z |

